(Generated with: DXF2GCODE, Version: Py3.6.2 PyQt5.9, Date: $Date: Mon Sep 25 13:57:11 2017 +0200 $)
(Created from file: C:/Users/Extensa 5620/Desktop/кольцо і крива.dxf)
(Output format description: G-CODE for LinuxCNC)
(Time: Sat Dec  9 20:37:57 2017)
G21 (Units in millimeters)
G90 (Absolute programming)
G64 (Default cutting) G17 (XY plane) G40 (Cancel radius comp.) G49 (Cancel length comp.)
G0 Z  15.000 

(*** LAYER: 0 ***)
T1 M6
S6000

(* SHAPE Nr: 0 *)
G0 X 639.898 Y1646.215
M3 M8
G0 Z   3.000 
F150
G1 Z  -1.500
F400
G1 X 649.204 Y1629.833
G3 X 652.096 Y1624.768 I3397.802 J1936.581
G3 X 656.949 Y1616.317 I2406.855 J1376.549
G3 X 662.290 Y1607.112 I1713.335 J 987.913
G3 X 667.650 Y1598.004 I1302.753 J 760.541
G3 X 673.020 Y1589.040 I1028.437 J 610.096
G3 X 678.440 Y1580.190 I 830.115 J 502.305
G3 X 685.210 Y1569.462 I 668.142 J 414.121
G3 X 691.189 Y1560.332 I 521.771 J 335.173
G3 X 696.628 Y1552.346 I 430.729 J 287.522
G3 X 702.441 Y1544.185 I 353.844 J 245.864
G3 X 708.006 Y1536.766 I 286.321 J 208.983
G3 X 713.720 Y1529.587 I 233.391 J 179.894
G3 X 718.182 Y1524.311 I 188.294 J 154.715
G3 X 721.977 Y1520.066 I 160.925 J 140.054
G3 X 725.776 Y1516.051 I 137.238 J 126.032
G3 X 729.577 Y1512.277 I 116.287 J 113.330
G3 X 733.382 Y1508.754 I  97.828 J 101.844
G3 X 737.189 Y1505.494 I  81.640 J  91.490
G3 X 741.000 Y1502.506 I  67.520 J  82.196
G3 X 744.823 Y1499.796 I  55.273 J  73.904
G3 X 748.877 Y1497.246 I  44.575 J  66.376
G3 X 753.049 Y1494.983 I  34.954 J  59.457
G3 X 756.985 Y1493.194 I  26.748 J  53.631
G3 X 761.040 Y1491.714 I  20.227 J  49.143
G3 X 764.774 Y1490.687 I  14.471 J  45.297
G3 X 768.525 Y1489.988 I   9.908 J  42.745
G3 X 773.453 Y1489.591 I   5.747 J  40.550
G3 X 778.517 Y1489.817 I   0.785 J  39.254
G3 X 782.315 Y1490.422 I  -4.292 J  39.149
G3 X 787.114 Y1491.733 I  -8.565 J  40.806
G3 X 789.688 Y1492.690 I -14.751 J  43.591
G3 X 792.401 Y1493.884 I -19.456 J  47.880
G3 X 795.115 Y1495.261 I -25.089 J  52.836
G3 X 797.834 Y1496.814 I -31.613 J  58.511
G3 X 800.557 Y1498.535 I -39.157 J  64.962
G3 X 803.286 Y1500.418 I -47.854 J  72.261
G3 X 806.036 Y1502.468 I -57.862 J  80.507
G3 X 809.099 Y1504.919 I -69.474 J  89.929
G3 X 813.054 Y1508.330 I -86.355 J 104.141
G3 X 817.370 Y1512.338 I-112.140 J 125.078
G3 X 821.226 Y1516.147 I-141.612 J 147.224
G3 X 825.177 Y1520.248 I-177.304 J 174.800
G3 X 829.140 Y1524.537 I-222.593 J 209.631
G3 X 833.117 Y1528.995 I-281.409 J 255.058
G3 X 837.151 Y1533.649 I-361.286 J 317.248
G3 X 842.245 Y1539.677 I-479.750 J 410.510
G3 X 848.092 Y1546.744 I-874.633 J 729.664
G1 X 862.171 Y1563.995
G2 X 864.378 Y1566.683 I1218.962 J-998.527
G2 X 869.286 Y1572.605 I 825.049 J-678.897
G2 X 875.519 Y1579.963 I 521.766 J-435.676
G2 X 880.437 Y1585.596 I 364.391 J-313.146
G2 X 884.607 Y1590.224 I 293.665 J-260.421
G2 X 888.833 Y1594.752 I 240.252 J-219.965
G2 X 894.134 Y1600.171 I 195.017 J-185.487
G2 X 898.840 Y1604.709 I 152.719 J-153.677
G2 X 903.110 Y1608.580 I 125.566 J-134.222
G2 X 907.431 Y1612.238 I 103.102 J-117.379
G2 X 912.067 Y1615.853 I  83.751 J-102.621
G2 X 916.534 Y1619.013 I  66.598 J -89.428
G2 X 921.194 Y1621.948 I  53.042 J -79.043
G2 X 925.709 Y1624.422 I  41.048 J -69.550
G2 X 930.412 Y1626.592 I  31.568 J -62.237
G2 X 934.961 Y1628.278 I  23.255 J -55.750
G2 X 939.481 Y1629.535 I  16.640 J -51.094
G2 X 943.932 Y1630.351 I  11.075 J -47.834
G2 X 948.086 Y1630.741 I   6.736 J -49.480
G2 X 953.029 Y1630.762 I   2.697 J -52.082
G2 X 958.563 Y1630.252 I  -2.447 J -56.749
G2 X 963.528 Y1629.344 I  -8.896 J -62.689
G2 X 968.206 Y1628.124 I -15.426 J -68.756
G2 X 973.250 Y1626.440 I -23.025 J -77.348
G2 X 977.975 Y1624.536 I -31.882 J -85.942
G2 X 983.112 Y1622.134 I -42.617 J -97.837
G2 X 987.722 Y1619.704 I -54.924 J-109.762
G2 X 992.448 Y1616.961 I -68.590 J-123.658
G2 X 997.191 Y1613.973 I -84.666 J-139.634
G2 X1001.950 Y1610.755 I-103.394 J-158.021
G2 X1006.723 Y1607.324 I-125.258 J-179.286
G2 X1011.508 Y1603.697 I-150.894 J-204.072
G2 X1016.306 Y1599.891 I-181.182 J-233.280
G2 X1021.115 Y1595.920 I-217.376 J-268.212
G2 X1025.963 Y1591.779 I-261.370 J-310.843
G2 X1031.372 Y1587.012 I-316.705 J-364.866
G2 X1038.408 Y1580.620 I-410.496 J-458.904
G2 X1046.678 Y1572.891 I-600.505 J-650.815
G2 X1053.691 Y1566.210 I-1060.345 J-1120.106
G1 X1063.595 Y1556.672
G2 X1067.669 Y1483.410 I 150.950 J -28.350
F150
G1 Z  -3.000
F400
G3 X1063.595 Y1556.672 I 146.876 J  44.912
G1 X1053.691 Y1566.210
G3 X1046.678 Y1572.891 I-1067.358 J-1113.426
G3 X1038.408 Y1580.620 I-608.775 J-643.086
G3 X1031.372 Y1587.012 I-417.532 J-452.512
G3 X1025.963 Y1591.779 I-322.114 J-360.099
G3 X1021.115 Y1595.920 I-266.218 J-306.701
G3 X1016.306 Y1599.891 I-222.185 J-264.242
G3 X1011.508 Y1603.697 I-185.979 J-229.474
G3 X1006.723 Y1607.324 I-155.680 J-200.445
G3 X1001.950 Y1610.755 I-130.030 J-175.855
G3 X 997.191 Y1613.973 I-108.153 J-154.803
G3 X 992.448 Y1616.961 I -89.409 J-136.646
G3 X 987.722 Y1619.704 I -73.316 J-120.916
G3 X 983.112 Y1622.134 I -59.534 J-107.332
G3 X 977.975 Y1624.536 I -47.754 J -95.434
G3 X 973.250 Y1626.440 I -36.606 J -84.038
G3 X 968.206 Y1628.124 I -28.069 J -75.663
G3 X 963.528 Y1629.344 I -20.104 J -67.537
G3 X 958.563 Y1630.252 I -13.861 J -61.781
G3 X 953.029 Y1630.762 I  -7.981 J -56.238
G3 X 948.086 Y1630.741 I  -2.247 J -52.103
G3 X 943.932 Y1630.351 I   2.582 J -49.870
G3 X 939.481 Y1629.535 I   6.624 J -48.651
G3 X 934.961 Y1628.278 I  12.120 J -52.351
G3 X 930.412 Y1626.592 I  18.705 J -57.437
G3 X 925.709 Y1624.422 I  26.865 J -64.407
G3 X 921.194 Y1621.948 I  36.532 J -72.025
G3 X 916.534 Y1619.013 I  48.382 J -81.978
G3 X 912.067 Y1615.853 I  62.131 J -92.587
G3 X 907.431 Y1612.238 I  79.115 J-106.236
G3 X 903.110 Y1608.580 I  98.781 J-121.037
G3 X 898.840 Y1604.709 I 121.296 J-138.092
G3 X 894.134 Y1600.171 I 148.012 J-158.215
G3 X 888.833 Y1594.752 I 189.716 J-190.906
G3 X 884.607 Y1590.224 I 236.026 J-224.493
G3 X 880.437 Y1585.596 I 289.494 J-265.049
G3 X 875.519 Y1579.963 I 359.473 J-318.779
G3 X 869.286 Y1572.605 I 515.533 J-443.034
G3 X 864.378 Y1566.683 I 820.140 J-684.818
G3 X 862.171 Y1563.995 I1216.755 J-1001.216
G1 X 848.092 Y1546.744
G2 X 842.245 Y1539.677 I-880.481 J 722.597
G2 X 837.151 Y1533.649 I-484.844 J 404.481
G2 X 833.117 Y1528.995 I-365.320 J 312.594
G2 X 829.140 Y1524.537 I-285.387 J 250.600
G2 X 825.177 Y1520.248 I-226.556 J 205.341
G2 X 821.226 Y1516.147 I-181.255 J 170.700
G2 X 817.370 Y1512.338 I-145.469 J 143.415
G2 X 813.054 Y1508.330 I-116.456 J 121.070
G2 X 809.099 Y1504.919 I -90.311 J 100.731
G2 X 806.036 Y1502.468 I -72.537 J  87.477
G2 X 803.286 Y1500.418 I -60.612 J  78.457
G2 X 800.557 Y1498.535 I -50.583 J  70.378
G2 X 797.834 Y1496.814 I -41.880 J  63.240
G2 X 795.115 Y1495.261 I -34.332 J  56.958
G2 X 792.401 Y1493.884 I -27.804 J  51.460
G2 X 789.688 Y1492.690 I -22.169 J  46.686
G2 X 787.114 Y1491.733 I -17.324 J  42.634
G2 X 782.315 Y1490.422 I -13.365 J  39.495
G2 X 778.517 Y1489.817 I  -8.090 J  38.544
G2 X 773.453 Y1489.591 I  -4.279 J  39.028
G2 X 768.525 Y1489.988 I   0.819 J  40.947
G2 X 764.774 Y1490.687 I   6.157 J  43.445
G2 X 761.040 Y1491.714 I  10.737 J  46.324
G2 X 756.985 Y1493.194 I  16.173 J  50.622
G2 X 753.049 Y1494.983 I  22.811 J  55.421
G2 X 748.877 Y1497.246 I  30.782 J  61.720
G2 X 744.823 Y1499.796 I  40.520 J  68.926
G2 X 741.000 Y1502.506 I  51.451 J  76.615
G2 X 737.189 Y1505.494 I  63.709 J  85.184
G2 X 733.382 Y1508.754 I  77.832 J  94.750
G2 X 729.577 Y1512.277 I  94.023 J 105.367
G2 X 725.776 Y1516.051 I 112.486 J 117.104
G2 X 721.977 Y1520.066 I 133.440 J 130.047
G2 X 718.182 Y1524.311 I 157.130 J 144.299
G2 X 713.720 Y1529.587 I 183.832 J 159.991
G2 X 708.006 Y1536.766 I 227.677 J 187.074
G2 X 702.441 Y1544.185 I 280.755 J 216.402
G2 X 696.628 Y1552.346 I 348.031 J 254.025
G2 X 691.189 Y1560.332 I 425.290 J 295.508
G2 X 685.210 Y1569.462 I 515.792 J 344.303
G2 X 678.440 Y1580.190 I 661.372 J 424.849
G2 X 673.020 Y1589.040 I 824.695 J 511.155
G2 X 667.650 Y1598.004 I1023.066 J 619.060
G2 X 662.290 Y1607.112 I1297.393 J 769.648
G2 X 656.949 Y1616.317 I1707.994 J 997.118
G2 X 652.096 Y1624.768 I2402.002 J1385.001
G2 X 649.204 Y1629.833 I3394.910 J1941.646
G1 X 639.898 Y1646.215
F150
G1 Z   3.000
G0 Z  15.000 
M9 M5
G0 X   0.000 Y   0.000
M2 (Program end)